texture_10.svg

<?xml version="1.0" encoding="UTF-8" standalone="no"?>
<svg
   version="1.1"
   id="svg20"
   sodipodi:docname="texture_10.svg"
   inkscape:version="1.1.2 (0a00cf5339, 2022-02-04)"
   width="1024"
   height="1024"
   xmlns:inkscape="http://www.inkscape.org/namespaces/inkscape"
   xmlns:sodipodi="http://sodipodi.sourceforge.net/DTD/sodipodi-0.dtd"
   xmlns="http://www.w3.org/2000/svg"
   xmlns:svg="http://www.w3.org/2000/svg">
  <sodipodi:namedview
     id="namedview22"
     pagecolor="#505050"
     bordercolor="#eeeeee"
     borderopacity="1"
     inkscape:pageshadow="0"
     inkscape:pageopacity="0"
     inkscape:pagecheckerboard="0"
     showgrid="false"
     inkscape:object-paths="true"
     inkscape:zoom="0.50333335"
     inkscape:cx="359.60264"
     inkscape:cy="438.07946"
     inkscape:window-width="1440"
     inkscape:window-height="831"
     inkscape:window-x="1280"
     inkscape:window-y="32"
     inkscape:window-maximized="1"
     inkscape:current-layer="g18" />
  <defs
     id="defs2" />
  <g
     id="g18">
    <path
       stroke="none"
       fill="#ffffff"
       d="M 1023,1 H 513 v 510 h 510 V 1 M 1,1 V 511 H 511 V 1 H 1 M 1,1023 H 511 V 513 H 1 v 510 M 0,0 H 1024 V 1024 H 0 V 0 M 1023,1023 V 513.05 L 513,513 v 510 h 510"
       id="path6" />
    <path
       stroke="none"
       fill="#ffffff"
       fill-opacity="0.2"
       d="m 257,1024 h -1 V 769 H 0 v -1 H 256 V 257 H 0 v -1 H 256 V 0 h 1 V 256 H 768 V 0 h 1 v 256 h 255 v 1 H 769 v 511 h 255 v 1 H 769 v 255 h -1 V 769 H 257 v 255 m 0,-256 H 768 V 257 H 257 v 511"
       id="path8" />
    <path
       stroke="none"
       fill="#ffffff"
       d="M 192.6,103.15 V 99.5 h 4.5 v 3.65 h 2.4 v 4.05 h -2.4 v 5 h -4.5 v -5 h -8.4 v -3.6 l 7.45,-12.4 h 5.1 l -7.1,11.95 h 2.95 m -19.6,-0.75 2.65,-3 c 0.53333,-0.73333 0.8,-1.45 0.8,-2.15 0,-0.73333 -0.23333,-1.33333 -0.7,-1.8 -0.46667,-0.46667 -1.05,-0.7 -1.75,-0.7 -1.33333,0 -2.58333,0.95 -3.75,2.85 l -3.75,-2.25 c 0.96667,-1.5 2.03333,-2.63333 3.2,-3.4 1.16667,-0.8 2.66667,-1.2 4.5,-1.2 1.8,0 3.38333,0.56667 4.75,1.7 1.36667,1.16667 2.05,2.73333 2.05,4.7 0,1.1 -0.28333,2.15 -0.85,3.15 -0.53333,0.96667 -1.53333,2.21667 -3,3.75 l -3.8,3.95 h 8.25 v 4.2 h -14.75 v -3.5 L 173,102.4 M 58.35,61 h -6.4 L 48.6,47.6 45.15,61 h -6.4 L 31.9,39.95 h 6.7 l 3.55,14.6 3.55,-14.55 6.1,-0.05 3.55,14.6 3.55,-14.6 h 6.35 L 58.35,61 m 21,-3.35 h -8.5 L 69.6,61 h -6.45 l 9,-21.05 h 6.4 L 87.2,61 h -6.65 l -1.2,-3.35 M 95,55.8 h 8.85 V 61 H 88.75 V 39.95 H 95 V 55.8 m 17.2,0 h 8.85 V 61 h -15.1 V 39.95 h 6.25 V 55.8 M 77.7,53.1 75.15,46.2 72.6,53.1 h 5.1 m -4.35,49.3 2.65,-3 c 0.533333,-0.73333 0.8,-1.45 0.8,-2.15 0,-0.73333 -0.233333,-1.33333 -0.7,-1.8 -0.466667,-0.46667 -1.05,-0.7 -1.75,-0.7 -1.333333,0 -2.583333,0.95 -3.75,2.85 l -3.75,-2.25 c 0.966667,-1.5 2.033333,-2.63333 3.2,-3.4 1.166667,-0.8 2.666667,-1.2 4.5,-1.2 1.8,0 3.383333,0.56667 4.75,1.7 1.366667,1.16667 2.05,2.73333 2.05,4.7 0,1.1 -0.283333,2.15 -0.85,3.15 -0.533333,0.96667 -1.533333,2.21667 -3,3.75 L 73.7,108 h 8.25 v 4.2 H 67.2 v -3.5 l 6.15,-6.3 M 54.7,112.45 c -2.9,0 -5.066667,-0.98333 -6.5,-2.95 -1.433333,-1.96667 -2.15,-4.6 -2.15,-7.9 0,-3.3 0.716667,-5.93333 2.15,-7.9 1.433333,-1.96667 3.6,-2.95 6.5,-2.95 2.9,0 5.066667,0.98333 6.5,2.95 1.433333,1.96667 2.15,4.6 2.15,7.9 0,3.3 -0.716667,5.93333 -2.15,7.9 -1.433333,1.96667 -3.6,2.95 -6.5,2.95 m -3.1,-15.9 c -0.666667,1.26667 -1,2.95 -1,5.05 0,2.1 0.333333,3.8 1,5.1 0.666667,1.26667 1.7,1.9 3.1,1.9 1.4,0 2.433333,-0.63333 3.1,-1.9 0.666667,-1.3 1,-3 1,-5.1 0,-2.1 -0.333333,-3.78333 -1,-5.05 -0.666667,-1.3 -1.7,-1.95 -3.1,-1.95 -1.4,0 -2.433333,0.65 -3.1,1.95 M 32.9,91.2 h 8.5 v 21 h -4.5 v -17 h -4 v -4 m 121.45,21.25 c -2.9,0 -5.06667,-0.98333 -6.5,-2.95 -1.43333,-1.96667 -2.15,-4.6 -2.15,-7.9 0,-3.3 0.71667,-5.93333 2.15,-7.9 1.43333,-1.96667 3.6,-2.95 6.5,-2.95 2.9,0 5.06667,0.98333 6.5,2.95 1.43333,1.96667 2.15,4.6 2.15,7.9 0,3.3 -0.71667,5.93333 -2.15,7.9 -1.43333,1.96667 -3.6,2.95 -6.5,2.95 M 132.55,91.2 h 8.5 v 21 h -4.5 v -17 h -4 v -4 m -14.3,7.45 4.75,-4.85 2.6,2.65 -4.7,4.85 4.75,4.85 -2.6,2.7 -4.8,-4.9 -4.75,4.9 -2.65,-2.7 4.8,-4.85 -4.8,-4.85 2.65,-2.65 4.75,4.85 m 33,-2.1 c -0.66667,1.26667 -1,2.95 -1,5.05 0,2.1 0.33333,3.8 1,5.1 0.66667,1.26667 1.7,1.9 3.1,1.9 1.4,0 2.43333,-0.63333 3.1,-1.9 0.66667,-1.3 1,-3 1,-5.1 0,-2.1 -0.33333,-3.78333 -1,-5.05 -0.66667,-1.3 -1.7,-1.95 -3.1,-1.95 -1.4,0 -2.43333,0.65 -3.1,1.95 m -58.3,6.6 V 99.5 h 4.5 v 3.65 h 2.4 v 4.05 h -2.4 v 5 h -4.5 v -5 h -8.4 v -3.6 L 92,91.2 h 5.1 L 90,103.15 h 2.95"
       id="path14"
       sodipodi:nodetypes="ccccccccccccccccccssscccscscccccccccccccccccccccccccccccccccccccccccccccccccccssscccscscccccccccsssssssccscscscscccccccccsssssssccccccccccccccccccccccscscscsccccccccccccccccc" />
    <path
       stroke="none"
       fill="#ffffff"
       fill-opacity="0.101961"
       d="m 896,0 h 1 v 1024 h -1 V 0 M 640,0 h 1 v 1024 h -1 V 0 M 384,0 h 1 v 1024 h -1 V 0 M 128,0 h 1 v 1024 h -1 V 0"
       id="path10" />
    <path
       stroke="none"
       fill="#ffffff"
       fill-opacity="0.101961"
       d="m 1024,128 v 1 H 0 v -1 h 1024 m 0,256 v 1 H 0 v -1 h 1024 m 0,256 v 1 H 0 v -1 h 1024 m 0,256 v 1 H 0 v -1 h 1024"
       id="path12" />
    <path
       fill="none"
       stroke="#ffffff"
       stroke-width="2"
       stroke-linecap="butt"
       stroke-linejoin="miter"
       stroke-miterlimit="3"
       d="M 32,76 H 200"
       id="path16" />
  </g>
  <path
     fill="none"
     stroke="#ffffff"
     stroke-width="2"
     stroke-linecap="butt"
     stroke-linejoin="miter"
     stroke-miterlimit="3"
     d="M 32,76 H 200"
     id="path18" />
</svg>

<?xml version="1.0" encoding="UTF-8"?>
<svg width="1024" height="1024" version="1.1" xmlns="http://www.w3.org/2000/svg">
 <g fill="#fff">
  <path d="m1023 1h-510v510h510v-510m-1022 0v510h510v-510h-510m0 1022h510v-510h-510v510m-1-1023h1024v1024h-1024v-1024m1023 1023v-509.95l-510-0.05v510h510"/>
  <path d="m257 1024h-1v-255h-256v-1h256v-511h-256v-1h256v-256h1v256h511v-256h1v256h255v1h-255v511h255v1h-255v255h-1v-255h-511v255m0-256h511v-511h-511v511" fill-opacity=".2"/>
  <path d="m192.6 103.15v-3.65h4.5v3.65h2.4v4.05h-2.4v5h-4.5v-5h-8.4v-3.6l7.45-12.4h5.1l-7.1 11.95h2.95m-19.6-0.75 2.65-3c0.53333-0.73333 0.8-1.45 0.8-2.15 0-0.73333-0.23333-1.3333-0.7-1.8s-1.05-0.7-1.75-0.7c-1.3333 0-2.5833 0.95-3.75 2.85l-3.75-2.25c0.96667-1.5 2.0333-2.6333 3.2-3.4 1.1667-0.8 2.6667-1.2 4.5-1.2 1.8 0 3.3833 0.56667 4.75 1.7 1.3667 1.1667 2.05 2.7333 2.05 4.7 0 1.1-0.28333 2.15-0.85 3.15-0.53333 0.96667-1.5333 2.2167-3 3.75l-3.8 3.95h8.25v4.2h-14.75v-3.5l6.15-6.3m-114.65-41.4h-6.4l-3.35-13.4-3.45 13.4h-6.4l-6.85-21.05h6.7l3.55 14.6 3.55-14.55 6.1-0.05 3.55 14.6 3.55-14.6h6.35l-6.9 21.05m21-3.35h-8.5l-1.25 3.35h-6.45l9-21.05h6.4l8.65 21.05h-6.65l-1.2-3.35m15.65-1.85h8.85v5.2h-15.1v-21.05h6.25v15.85m17.2 0h8.85v5.2h-15.1v-21.05h6.25v15.85m-34.5-2.7-2.55-6.9-2.55 6.9h5.1m-4.35 49.3 2.65-3c0.53333-0.73333 0.8-1.45 0.8-2.15 0-0.73333-0.23333-1.3333-0.7-1.8s-1.05-0.7-1.75-0.7c-1.3333 0-2.5833 0.95-3.75 2.85l-3.75-2.25c0.96667-1.5 2.0333-2.6333 3.2-3.4 1.1667-0.8 2.6667-1.2 4.5-1.2 1.8 0 3.3833 0.56667 4.75 1.7 1.3667 1.1667 2.05 2.7333 2.05 4.7 0 1.1-0.28333 2.15-0.85 3.15-0.53333 0.96667-1.5333 2.2167-3 3.75l-3.8 3.95h8.25v4.2h-14.75v-3.5l6.15-6.3m-18.65 10.05c-2.9 0-5.0667-0.98333-6.5-2.95s-2.15-4.6-2.15-7.9 0.71667-5.9333 2.15-7.9 3.6-2.95 6.5-2.95 5.0667 0.98333 6.5 2.95 2.15 4.6 2.15 7.9-0.71667 5.9333-2.15 7.9-3.6 2.95-6.5 2.95m-3.1-15.9c-0.66667 1.2667-1 2.95-1 5.05s0.33333 3.8 1 5.1c0.66667 1.2667 1.7 1.9 3.1 1.9s2.4333-0.63333 3.1-1.9c0.66667-1.3 1-3 1-5.1s-0.33333-3.7833-1-5.05c-0.66667-1.3-1.7-1.95-3.1-1.95s-2.4333 0.65-3.1 1.95m-18.7-5.35h8.5v21h-4.5v-17h-4v-4m121.45 21.25c-2.9 0-5.0667-0.98333-6.5-2.95s-2.15-4.6-2.15-7.9 0.71667-5.9333 2.15-7.9 3.6-2.95 6.5-2.95 5.0667 0.98333 6.5 2.95 2.15 4.6 2.15 7.9-0.71667 5.9333-2.15 7.9-3.6 2.95-6.5 2.95m-21.8-21.25h8.5v21h-4.5v-17h-4v-4m-14.3 7.45 4.75-4.85 2.6 2.65-4.7 4.85 4.75 4.85-2.6 2.7-4.8-4.9-4.75 4.9-2.65-2.7 4.8-4.85-4.8-4.85 2.65-2.65 4.75 4.85m33-2.1c-0.66667 1.2667-1 2.95-1 5.05s0.33333 3.8 1 5.1c0.66667 1.2667 1.7 1.9 3.1 1.9s2.4333-0.63333 3.1-1.9c0.66667-1.3 1-3 1-5.1s-0.33333-3.7833-1-5.05c-0.66667-1.3-1.7-1.95-3.1-1.95s-2.4333 0.65-3.1 1.95m-58.3 6.6v-3.65h4.5v3.65h2.4v4.05h-2.4v5h-4.5v-5h-8.4v-3.6l7.45-12.4h5.1l-7.1 11.95h2.95"/>
  <path d="m896 0h1v1024h-1v-1024m-256 0h1v1024h-1v-1024m-256 0h1v1024h-1v-1024m-256 0h1v1024h-1v-1024" fill-opacity=".10196"/>
  <path d="m1024 128v1h-1024v-1h1024m0 256v1h-1024v-1h1024m0 256v1h-1024v-1h1024m0 256v1h-1024v-1h1024" fill-opacity=".10196"/>
 </g>
 <path d="m32 76h168" fill="none" stroke="#fff" stroke-miterlimit="3" stroke-width="2"/>
 <path d="m32 76h168" fill="none" stroke="#fff" stroke-miterlimit="3" stroke-width="2"/>
</svg>
